X: 14051
T: Fred Finn's
R: reel
M: 4/4
K: Dmajor
A3F ABde|fdec d2cd|BE~E2 GFGB|AF~F2 dFAF|
A3F ABde|fdec d2cd|BAGB ABde|faeg fdd2:|
fdad bdaf|dfaf fee2|fbba b2ba|faba feeg|
fdad bdaf|dfaf gfed|BAGB ABde|faeg fdd2:|

